X:1
T:[ID 1-109a]
T:[ID 1-109a]
T:Bezeichnung standardisiert: Tanz mit mir; Tantz mit mir In dieser Quelle auch als: Courant In dieser Quelle auch als: Allegro In dieser Quelle auch als: Boure In dieser Quelle auch als: Boure Dantz mit mir \"Ahnlich in dieser Quelle: ID 1-109a; \"Ahnlich in anderer Quelle: Neu-Hollaendisch - Hs. Arendsee (Anm. S. Wascher);
T:Urheber unbekannt Erstbeleg: 1773 (Datum in der schriftlichen Quelle) Datum in der hier transkribierten schriftlichen Quelle: 1792
C:Urheber unbekannt
C:Erstbeleg: 1773 (Datum in der schriftlichen Quelle)
C:Datum in der hier transkribierten schriftlichen Quelle: 1792
L:1/8
M:4/4
K:D
V:1 treble 
V:1
 d2 f2 f4 | e2 g2 g4 | fafd egec | d4 D4 :: f2 a2 a2 ga | b2 g2 g4 | e2 g2 g2 fg | a2 f2 f4 | %8
 d2 f2 f4 | e2 g2 g4 | fafd egec | d4 D4 :| %12

